X: 5234
T: Broken Gold Ring, The
R: jig
M: 6/8
K: Dmajor
|:A|dAF AFE|DB,A, D2 A|def e^de|fdB B2 c|
d2 F AFE|DB,A, DF/G/A|d2 f e^de|fdc d2:|
|:B|AF/G/A dcd|B^AB dAF|DEF GFE|ADB, B,2 B|
AFA dcd|B^AB dAF|DD/E/F GEG|FDC D2:|

